X:28
T:Fig For A Kiss, A
S:The Session: https://thesession.org/tunes/750#setting55329
C:Traditional
R:slip jig
K:Edor
M:9/8
L:1/8
Q:1/4=113
F|:"Em" G2B E2B BAG| "D"F2A D2A AGF| "Em"G2B E2B BAG|1 "G"B/c/dB "D"AGF "Em"DEF:|2 "G"B/c/dB "D"AGF "Em"E3 |]
|: "Em"g2e g2e edB| "D"f2d dcd fed|1 "C"g2e "D"g2e "Em"edB| dBG "D"GBd "Em"e2f:|2 "C"gfe "D"fed "Em"ecA| B/c/dB "D"AGF "Em"E3 |]

